icons/link.svg

<svg width="24" height="24" viewBox="0 0 24 24" fill="none" xmlns="http://www.w3.org/2000/svg">
<path fill-rule="evenodd" clip-rule="evenodd" d="M14.9097 3.41375C16.7948 1.52875 18.6798 1.52875 20.5658 3.41375C22.4517 5.29975 22.4517 7.18575 20.5658 9.07075L15.5257 14.1138C13.6407 15.9998 11.7558 15.9998 9.86975 14.1138C9.86975 14.1138 9.16275 13.4067 9.86975 12.6997C10.3408 12.2288 10.8127 12.2288 11.2837 12.6997C12.2267 13.6427 13.1698 13.6427 14.1128 12.6997L19.1528 7.65675C20.0947 6.71375 20.0947 5.77075 19.1528 4.82875C18.2087 3.88575 17.2668 3.88575 16.3228 4.82875L13.9097 7.24275C13.4377 7.71375 12.9668 7.71375 12.4948 7.24275C12.0238 6.77075 12.0238 6.29975 12.4948 5.82875L14.9097 3.41375ZM9.07075 20.5637C7.18475 22.4497 5.29975 22.4497 3.41375 20.5637C1.52875 18.6787 1.52875 16.7937 3.41375 14.9078L8.45475 9.87075C10.3408 7.98475 12.2257 7.98475 14.1117 9.87075C14.1117 9.87075 14.8187 10.5778 14.1117 11.2847C13.6397 11.7568 13.1687 11.7568 12.6978 11.2847C11.7548 10.3418 10.8118 10.3418 9.86875 11.2847L4.82875 16.3218C3.88575 17.2648 3.88575 18.2078 4.82875 19.1497C5.77075 20.0928 6.71375 20.0928 7.65675 19.1497L10.0707 16.7358C10.5417 16.2648 11.0138 16.2648 11.4847 16.7358C11.9567 17.2078 11.9567 17.6788 11.4847 18.1497L9.07075 20.5648V20.5637Z" fill="#3A3A47"/>
</svg>

<svg xmlns="http://www.w3.org/2000/svg" width="24" height="24" viewBox="0 0 24 24">
    <path fill="#3A3A47" fill-rule="evenodd" d="M14.118 9.864s.707.707 0 1.414c-.472.472-.943.472-1.414 0-.943-.943-1.886-.943-2.829 0l-5.04 5.037c-.943.943-.943 1.886 0 2.828.942.943 1.885.943 2.828 0l2.414-2.414c.471-.471.943-.471 1.414 0 .472.472.472.943 0 1.414l-2.414 2.415c-1.886 1.885-3.771 1.885-5.657 0-1.885-1.886-1.885-3.772 0-5.657l5.041-5.037c1.886-1.886 3.771-1.886 5.657 0zm6.454-6.457c1.886 1.886 1.886 3.772 0 5.657l-5.04 5.043c-1.885 1.886-3.77 1.886-5.656 0 0 0-.707-.707 0-1.414.471-.471.943-.471 1.414 0 .943.943 1.886.943 2.829 0l5.04-5.043c.942-.943.942-1.886 0-2.828-.944-.943-1.886-.943-2.83 0l-2.413 2.414c-.472.471-.943.471-1.415 0-.471-.472-.471-.943 0-1.414l2.415-2.415c1.885-1.885 3.77-1.885 5.656 0z"/>
</svg>
